!! 00000] TT[00
!! NN
!!!OTL: Zhi shoujin
!!!ARE: Asia, China,ˇbei Gansu, Zhangye, Nordwesten)
!! Ethnic Group: Han
!! I, 120
!!!SCT: C0037
!!!YEM: Copyright 1995, estate of Helmut Schaffrath.
**kern
*ICvox
*Ivox
*M2/4
*k[b-]
*F:
{8cc
8cc
4cc
=1
8dd
8ff
8dd
8cc
=2
8cc
8a
8g
8f
=3
8g
8a
4g}
=4
{4cc
8a
8cc
=5
8cc
8d
4f
=6
8g
8a
8f
8d
=7
8c
8d
4c}
=8
{8.d
16f
8d
8f
=9
8.g
16a
4g}
=10
{4cc
8a
8cc
=11
8cc
8d
4f
=12
8g
8a
8f
8d
=13
2c}
==
!!!AGN: Xiaodiao, Shidiao, MengjiangnÅ diao. Xin minge
!! Handtuecher weben.
!!!ONB: ESAC (Essen Associative Code) Database: CHINA
!!!AMT: simple duple
!!!AIN: vox
!!!EED: Helmut Schaffrath
!!!EEV: 1.0
*-
